assets/1. F-P/Goal net/Color/Goal.Net-color.svg

<svg width="100%" height="100%" viewBox="0 0 32 32" fill="none" xmlns="http://www.w3.org/2000/svg">
<g filter="url(#filter0_i_18_2723)">
<path fill-rule="evenodd" clip-rule="evenodd" d="M9.00002 10.425C9.31758 10.425 9.57502 10.6824 9.57502 11V15.275C9.57502 15.3578 9.64218 15.425 9.72502 15.425H15.275C15.3579 15.425 15.425 15.3578 15.425 15.275V11C15.425 10.6824 15.6825 10.425 16 10.425C16.3176 10.425 16.575 10.6824 16.575 11V15.275C16.575 15.3578 16.6422 15.425 16.725 15.425H22.275C22.3579 15.425 22.425 15.3578 22.425 15.275V11C22.425 10.6824 22.6825 10.425 23 10.425C23.3176 10.425 23.575 10.6824 23.575 11V15.5836C23.575 15.6369 23.6034 15.6863 23.6494 15.7131L29.2897 19.0033C29.5641 19.1633 29.6567 19.5154 29.4967 19.7897C29.3367 20.064 28.9846 20.1567 28.7103 19.9967L23.8006 17.1327C23.7006 17.0743 23.575 17.1465 23.575 17.2622V20.5836C23.575 20.6369 23.6034 20.6863 23.6494 20.7131L29.2897 24.0033C29.5641 24.1633 29.6567 24.5154 29.4967 24.7897C29.3367 25.064 28.9846 25.1567 28.7103 24.9967L23.8006 22.1327C23.7006 22.0743 23.575 22.1465 23.575 22.2622V25.5836C23.575 25.6369 23.6034 25.6863 23.6494 25.7131L29.2897 29.0033C29.5641 29.1633 29.6567 29.5154 29.4967 29.7897C29.3367 30.064 28.9846 30.1567 28.7103 29.9967L22.8796 26.5954C22.8567 26.582 22.8306 26.575 22.804 26.575H9.19602C9.16947 26.575 9.14338 26.582 9.12044 26.5954L3.28975 29.9967C3.01544 30.1567 2.66336 30.064 2.50335 29.7897C2.34334 29.5154 2.43599 29.1633 2.71029 29.0033L8.3506 25.7131C8.39668 25.6863 8.42502 25.6369 8.42502 25.5836V22.2622C8.42502 22.1465 8.29944 22.0743 8.19944 22.1327L3.28975 24.9967C3.01544 25.1567 2.66336 25.064 2.50335 24.7897C2.34334 24.5154 2.43599 24.1633 2.71029 24.0033L8.3506 20.7131C8.39668 20.6863 8.42502 20.6369 8.42502 20.5836V17.2622C8.42502 17.1465 8.29944 17.0743 8.19944 17.1327L3.28975 19.9967C3.01544 20.1567 2.66336 20.064 2.50335 19.7897C2.34334 19.5154 2.43599 19.1633 2.71029 19.0033L8.3506 15.7131C8.39668 15.6863 8.42502 15.6369 8.42502 15.5836V11C8.42502 10.6824 8.68246 10.425 9.00002 10.425ZM9.72502 16.575C9.64218 16.575 9.57502 16.6421 9.57502 16.725V20.275C9.57502 20.3578 9.64218 20.425 9.72502 20.425H15.275C15.3579 20.425 15.425 20.3578 15.425 20.275V16.725C15.425 16.6421 15.3579 16.575 15.275 16.575H9.72502ZM16.725 16.575C16.6422 16.575 16.575 16.6421 16.575 16.725V20.275C16.575 20.3578 16.6422 20.425 16.725 20.425H22.275C22.3579 20.425 22.425 20.3578 22.425 20.275V16.725C22.425 16.6421 22.3579 16.575 22.275 16.575H16.725ZM22.425 21.725C22.425 21.6421 22.3579 21.575 22.275 21.575H16.725C16.6422 21.575 16.575 21.6421 16.575 21.725V25.275C16.575 25.3578 16.6422 25.425 16.725 25.425H22.275C22.3579 25.425 22.425 25.3578 22.425 25.275V21.725ZM15.275 25.425C15.3579 25.425 15.425 25.3578 15.425 25.275V21.725C15.425 21.6421 15.3579 21.575 15.275 21.575H9.72502C9.64218 21.575 9.57502 21.6421 9.57502 21.725V25.275C9.57502 25.3578 9.64218 25.425 9.72502 25.425H15.275Z" fill="url(#paint0_linear_18_2723)"/>
<path fill-rule="evenodd" clip-rule="evenodd" d="M9.00002 10.425C9.31758 10.425 9.57502 10.6824 9.57502 11V15.275C9.57502 15.3578 9.64218 15.425 9.72502 15.425H15.275C15.3579 15.425 15.425 15.3578 15.425 15.275V11C15.425 10.6824 15.6825 10.425 16 10.425C16.3176 10.425 16.575 10.6824 16.575 11V15.275C16.575 15.3578 16.6422 15.425 16.725 15.425H22.275C22.3579 15.425 22.425 15.3578 22.425 15.275V11C22.425 10.6824 22.6825 10.425 23 10.425C23.3176 10.425 23.575 10.6824 23.575 11V15.5836C23.575 15.6369 23.6034 15.6863 23.6494 15.7131L29.2897 19.0033C29.5641 19.1633 29.6567 19.5154 29.4967 19.7897C29.3367 20.064 28.9846 20.1567 28.7103 19.9967L23.8006 17.1327C23.7006 17.0743 23.575 17.1465 23.575 17.2622V20.5836C23.575 20.6369 23.6034 20.6863 23.6494 20.7131L29.2897 24.0033C29.5641 24.1633 29.6567 24.5154 29.4967 24.7897C29.3367 25.064 28.9846 25.1567 28.7103 24.9967L23.8006 22.1327C23.7006 22.0743 23.575 22.1465 23.575 22.2622V25.5836C23.575 25.6369 23.6034 25.6863 23.6494 25.7131L29.2897 29.0033C29.5641 29.1633 29.6567 29.5154 29.4967 29.7897C29.3367 30.064 28.9846 30.1567 28.7103 29.9967L22.8796 26.5954C22.8567 26.582 22.8306 26.575 22.804 26.575H9.19602C9.16947 26.575 9.14338 26.582 9.12044 26.5954L3.28975 29.9967C3.01544 30.1567 2.66336 30.064 2.50335 29.7897C2.34334 29.5154 2.43599 29.1633 2.71029 29.0033L8.3506 25.7131C8.39668 25.6863 8.42502 25.6369 8.42502 25.5836V22.2622C8.42502 22.1465 8.29944 22.0743 8.19944 22.1327L3.28975 24.9967C3.01544 25.1567 2.66336 25.064 2.50335 24.7897C2.34334 24.5154 2.43599 24.1633 2.71029 24.0033L8.3506 20.7131C8.39668 20.6863 8.42502 20.6369 8.42502 20.5836V17.2622C8.42502 17.1465 8.29944 17.0743 8.19944 17.1327L3.28975 19.9967C3.01544 20.1567 2.66336 20.064 2.50335 19.7897C2.34334 19.5154 2.43599 19.1633 2.71029 19.0033L8.3506 15.7131C8.39668 15.6863 8.42502 15.6369 8.42502 15.5836V11C8.42502 10.6824 8.68246 10.425 9.00002 10.425ZM9.72502 16.575C9.64218 16.575 9.57502 16.6421 9.57502 16.725V20.275C9.57502 20.3578 9.64218 20.425 9.72502 20.425H15.275C15.3579 20.425 15.425 20.3578 15.425 20.275V16.725C15.425 16.6421 15.3579 16.575 15.275 16.575H9.72502ZM16.725 16.575C16.6422 16.575 16.575 16.6421 16.575 16.725V20.275C16.575 20.3578 16.6422 20.425 16.725 20.425H22.275C22.3579 20.425 22.425 20.3578 22.425 20.275V16.725C22.425 16.6421 22.3579 16.575 22.275 16.575H16.725ZM22.425 21.725C22.425 21.6421 22.3579 21.575 22.275 21.575H16.725C16.6422 21.575 16.575 21.6421 16.575 21.725V25.275C16.575 25.3578 16.6422 25.425 16.725 25.425H22.275C22.3579 25.425 22.425 25.3578 22.425 25.275V21.725ZM15.275 25.425C15.3579 25.425 15.425 25.3578 15.425 25.275V21.725C15.425 21.6421 15.3579 21.575 15.275 21.575H9.72502C9.64218 21.575 9.57502 21.6421 9.57502 21.725V25.275C9.57502 25.3578 9.64218 25.425 9.72502 25.425H15.275Z" fill="url(#paint1_linear_18_2723)"/>
</g>
<g filter="url(#filter1_f_18_2723)">
<path d="M3 19.5L9 16M9 16V11M9 16H16M9 16V21M23 16L29 19.5M23 16V11M23 16H16M23 16V21M16 16V11M16 16V21M9 21L3 24.5M9 21V26M9 21H16M9 26L3 29.5M9 26H16M16 21V26M16 21H23M16 26H23M23 21V26M23 21L29 24.5M23 26L29 29.5" stroke="url(#paint2_linear_18_2723)" stroke-width="0.4" stroke-linecap="round" stroke-linejoin="round"/>
</g>
<path d="M3 19.5L9 16M9 16V11M9 16H16M9 16V21M23 16L29 19.5M23 16V11M23 16H16M23 16V21M16 16V11M16 16V21M9 21L3 24.5M9 21V26M9 21H16M9 26L3 29.5M9 26H16M16 21V26M16 21H23M16 26H23M23 21V26M23 21L29 24.5M23 26L29 29.5" stroke="url(#paint3_linear_18_2723)" stroke-width="1.15" stroke-linecap="round" stroke-linejoin="round"/>
<path d="M3 19.5L9 16M9 16V11M9 16H16M9 16V21M23 16L29 19.5M23 16V11M23 16H16M23 16V21M16 16V11M16 16V21M9 21L3 24.5M9 21V26M9 21H16M9 26L3 29.5M9 26H16M16 21V26M16 21H23M16 26H23M23 21V26M23 21L29 24.5M23 26L29 29.5" stroke="url(#paint4_linear_18_2723)" stroke-width="1.15" stroke-linecap="round" stroke-linejoin="round"/>
<g filter="url(#filter2_i_18_2723)">
<path d="M5.08124 12.6988C4.46852 13.1381 4 13.8379 4 15.0188V29.5732C4 29.8504 3.77614 30.0751 3.5 30.0751H2.5C2.22386 30.0751 2 29.8504 2 29.5732V15.0188C2 13.1883 2.78148 11.8806 3.91876 11.0653C5.00991 10.2829 6.35719 10 7.5 10H24.5C25.6428 10 26.9901 10.2829 28.0812 11.0653C29.2185 11.8806 30 13.1883 30 15.0188V29.5732C30 29.8504 29.7761 30.0751 29.5 30.0751H28.5C28.2239 30.0751 28 29.8504 28 29.5732V15.0188C28 13.8379 27.5315 13.1381 26.9188 12.6988C26.2599 12.2265 25.3572 12.0075 24.5 12.0075H7.5C6.64281 12.0075 5.74009 12.2265 5.08124 12.6988Z" fill="url(#paint5_linear_18_2723)"/>
</g>
<g filter="url(#filter3_f_18_2723)">
<path d="M3.5 28.822V15H2.5V28.822H3.5ZM3.5 15C3.5 13.6618 4.04676 12.8132 4.79062 12.2819C5.55754 11.7341 6.57141 11.5 7.5 11.5V10.5C6.42859 10.5 5.19246 10.7659 4.20938 11.4681C3.20324 12.1868 2.5 13.3382 2.5 15H3.5ZM7.5 11.5H24.5V10.5H7.5V11.5ZM24.5 11.5C25.4286 11.5 26.4425 11.7341 27.2094 12.2819C27.9532 12.8132 28.5 13.6618 28.5 15H29.5C29.5 13.3382 28.7968 12.1868 27.7906 11.4681C26.8075 10.7659 25.5714 10.5 24.5 10.5V11.5ZM28.5 15V29.3057H29.5V15H28.5Z" fill="url(#paint6_linear_18_2723)"/>
</g>
<defs>
<filter id="filter0_i_18_2723" x="2.42493" y="10.275" width="27.1502" height="19.8001" filterUnits="userSpaceOnUse" color-interpolation-filters="sRGB">
<feFlood flood-opacity="0" result="BackgroundImageFix"/>
<feBlend mode="normal" in="SourceGraphic" in2="BackgroundImageFix" result="shape"/>
<feColorMatrix in="SourceAlpha" type="matrix" values="0 0 0 0 0 0 0 0 0 0 0 0 0 0 0 0 0 0 127 0" result="hardAlpha"/>
<feOffset dy="-0.15"/>
<feGaussianBlur stdDeviation="0.2"/>
<feComposite in2="hardAlpha" operator="arithmetic" k2="-1" k3="1"/>
<feColorMatrix type="matrix" values="0 0 0 0 0.717647 0 0 0 0 0.541176 0 0 0 0 0.85098 0 0 0 1 0"/>
<feBlend mode="normal" in2="shape" result="effect1_innerShadow_18_2723"/>
</filter>
<filter id="filter1_f_18_2723" x="2.29999" y="10.3" width="27.4" height="19.9001" filterUnits="userSpaceOnUse" color-interpolation-filters="sRGB">
<feFlood flood-opacity="0" result="BackgroundImageFix"/>
<feBlend mode="normal" in="SourceGraphic" in2="BackgroundImageFix" result="shape"/>
<feGaussianBlur stdDeviation="0.25" result="effect1_foregroundBlur_18_2723"/>
</filter>
<filter id="filter2_i_18_2723" x="2" y="10" width="28.6" height="20.0751" filterUnits="userSpaceOnUse" color-interpolation-filters="sRGB">
<feFlood flood-opacity="0" result="BackgroundImageFix"/>
<feBlend mode="normal" in="SourceGraphic" in2="BackgroundImageFix" result="shape"/>
<feColorMatrix in="SourceAlpha" type="matrix" values="0 0 0 0 0 0 0 0 0 0 0 0 0 0 0 0 0 0 127 0" result="hardAlpha"/>
<feOffset dx="0.6"/>
<feGaussianBlur stdDeviation="0.5"/>
<feComposite in2="hardAlpha" operator="arithmetic" k2="-1" k3="1"/>
<feColorMatrix type="matrix" values="0 0 0 0 0.709804 0 0 0 0 0.207843 0 0 0 0 0.290196 0 0 0 1 0"/>
<feBlend mode="normal" in2="shape" result="effect1_innerShadow_18_2723"/>
</filter>
<filter id="filter3_f_18_2723" x="1.75" y="9.75" width="28.5" height="20.3057" filterUnits="userSpaceOnUse" color-interpolation-filters="sRGB">
<feFlood flood-opacity="0" result="BackgroundImageFix"/>
<feBlend mode="normal" in="SourceGraphic" in2="BackgroundImageFix" result="shape"/>
<feGaussianBlur stdDeviation="0.375" result="effect1_foregroundBlur_18_2723"/>
</filter>
<linearGradient id="paint0_linear_18_2723" x1="4.00003" y1="20.5" x2="28" y2="20.5" gradientUnits="userSpaceOnUse">
<stop stop-color="#D1C6D2"/>
<stop offset="0.5" stop-color="#CDB1E1"/>
<stop offset="1" stop-color="#CEB3E3"/>
</linearGradient>
<linearGradient id="paint1_linear_18_2723" x1="16" y1="11" x2="16" y2="29.5" gradientUnits="userSpaceOnUse">
<stop offset="0.78125" stop-color="#C598EB" stop-opacity="0"/>
<stop offset="1" stop-color="#C598EB" stop-opacity="0.4"/>
</linearGradient>
<linearGradient id="paint2_linear_18_2723" x1="4" y1="20.5" x2="28" y2="20.5" gradientUnits="userSpaceOnUse">
<stop stop-color="#F8EBFF"/>
<stop offset="0.078125" stop-color="#F6E8FF"/>
<stop offset="1" stop-color="#E4CAFA"/>
</linearGradient>
<linearGradient id="paint3_linear_18_2723" x1="4" y1="20.5" x2="28" y2="20.5" gradientUnits="userSpaceOnUse">
<stop offset="0.583333" stop-color="#826484" stop-opacity="0"/>
<stop offset="1" stop-color="#826484" stop-opacity="0.5"/>
</linearGradient>
<linearGradient id="paint4_linear_18_2723" x1="16" y1="11" x2="16" y2="29.5" gradientUnits="userSpaceOnUse">
<stop stop-color="#87477B" stop-opacity="0.8"/>
<stop offset="0.192708" stop-color="#87477B" stop-opacity="0"/>
</linearGradient>
<linearGradient id="paint5_linear_18_2723" x1="28.6192" y1="22.5139" x2="1.52941" y2="22.5139" gradientUnits="userSpaceOnUse">
<stop stop-color="#F32A8D"/>
<stop offset="1" stop-color="#F22D5C"/>
</linearGradient>
<linearGradient id="paint6_linear_18_2723" x1="29" y1="10.5" x2="1.5" y2="30" gradientUnits="userSpaceOnUse">
<stop stop-color="#FF58A3"/>
<stop offset="0.510417" stop-color="#FF5A83"/>
<stop offset="1" stop-color="#FF4B75"/>
</linearGradient>
</defs>
</svg>

<svg width="100%" height="100%" viewBox="0 0 32 32" xmlns="http://www.w3.org/2000/svg"><g fill-rule="evenodd" clip-rule="evenodd" filter="url(#a)"><path fill="url(#b)" d="M9 10.425c.318 0 .575.257.575.575v4.275c0 .083.067.15.15.15h5.55a.15.15 0 0 0 .15-.15V11a.575.575 0 0 1 1.15 0v4.275c0 .083.067.15.15.15h5.55a.15.15 0 0 0 .15-.15V11a.575.575 0 0 1 1.15 0v4.584a.15.15 0 0 0 .074.13l5.64 3.29a.575.575 0 1 1-.579.993l-4.91-2.864a.15.15 0 0 0-.225.13v3.32a.15.15 0 0 0 .074.13l5.64 3.29a.575.575 0 1 1-.579.994l-4.91-2.864a.15.15 0 0 0-.225.13v3.32a.15.15 0 0 0 .074.13l5.64 3.29a.575.575 0 1 1-.579.994l-5.83-3.402a.15.15 0 0 0-.076-.02H9.196a.15.15 0 0 0-.076.02l-5.83 3.402a.575.575 0 0 1-.58-.994l5.64-3.29a.15.15 0 0 0 .075-.13v-3.32a.15.15 0 0 0-.226-.13l-4.91 2.864a.575.575 0 0 1-.579-.994l5.64-3.29a.15.15 0 0 0 .075-.13v-3.32a.15.15 0 0 0-.226-.13l-4.91 2.864a.575.575 0 0 1-.579-.994l5.64-3.29a.15.15 0 0 0 .075-.13V11c0-.318.257-.575.575-.575m.725 6.15a.15.15 0 0 0-.15.15v3.55c0 .083.067.15.15.15h5.55a.15.15 0 0 0 .15-.15v-3.55a.15.15 0 0 0-.15-.15zm7 0a.15.15 0 0 0-.15.15v3.55c0 .083.067.15.15.15h5.55a.15.15 0 0 0 .15-.15v-3.55a.15.15 0 0 0-.15-.15zm5.7 5.15a.15.15 0 0 0-.15-.15h-5.55a.15.15 0 0 0-.15.15v3.55c0 .083.067.15.15.15h5.55a.15.15 0 0 0 .15-.15zm-7.15 3.7a.15.15 0 0 0 .15-.15v-3.55a.15.15 0 0 0-.15-.15h-5.55a.15.15 0 0 0-.15.15v3.55c0 .083.067.15.15.15z"/><path fill="url(#c)" d="M9 10.425c.318 0 .575.257.575.575v4.275c0 .083.067.15.15.15h5.55a.15.15 0 0 0 .15-.15V11a.575.575 0 0 1 1.15 0v4.275c0 .083.067.15.15.15h5.55a.15.15 0 0 0 .15-.15V11a.575.575 0 0 1 1.15 0v4.584a.15.15 0 0 0 .074.13l5.64 3.29a.575.575 0 1 1-.579.993l-4.91-2.864a.15.15 0 0 0-.225.13v3.32a.15.15 0 0 0 .074.13l5.64 3.29a.575.575 0 1 1-.579.994l-4.91-2.864a.15.15 0 0 0-.225.13v3.32a.15.15 0 0 0 .074.13l5.64 3.29a.575.575 0 1 1-.579.994l-5.83-3.402a.15.15 0 0 0-.076-.02H9.196a.15.15 0 0 0-.076.02l-5.83 3.402a.575.575 0 0 1-.58-.994l5.64-3.29a.15.15 0 0 0 .075-.13v-3.32a.15.15 0 0 0-.226-.13l-4.91 2.864a.575.575 0 0 1-.579-.994l5.64-3.29a.15.15 0 0 0 .075-.13v-3.32a.15.15 0 0 0-.226-.13l-4.91 2.864a.575.575 0 0 1-.579-.994l5.64-3.29a.15.15 0 0 0 .075-.13V11c0-.318.257-.575.575-.575m.725 6.15a.15.15 0 0 0-.15.15v3.55c0 .083.067.15.15.15h5.55a.15.15 0 0 0 .15-.15v-3.55a.15.15 0 0 0-.15-.15zm7 0a.15.15 0 0 0-.15.15v3.55c0 .083.067.15.15.15h5.55a.15.15 0 0 0 .15-.15v-3.55a.15.15 0 0 0-.15-.15zm5.7 5.15a.15.15 0 0 0-.15-.15h-5.55a.15.15 0 0 0-.15.15v3.55c0 .083.067.15.15.15h5.55a.15.15 0 0 0 .15-.15zm-7.15 3.7a.15.15 0 0 0 .15-.15v-3.55a.15.15 0 0 0-.15-.15h-5.55a.15.15 0 0 0-.15.15v3.55c0 .083.067.15.15.15z"/></g><g filter="url(#d)"><path stroke="url(#e)" stroke-linecap="round" stroke-linejoin="round" stroke-width=".4" d="M3 19.5 9 16m0 0v-5m0 5h7m-7 0v5m14-5 6 3.5M23 16v-5m0 5h-7m7 0v5m-7-5v-5m0 5v5m-7 0-6 3.5M9 21v5m0-5h7m-7 5-6 3.5M9 26h7m0-5v5m0-5h7m-7 5h7m0-5v5m0-5 6 3.5M23 26l6 3.5"/></g><path stroke="url(#f)" stroke-linecap="round" stroke-linejoin="round" stroke-width="1.15" d="M3 19.5 9 16m0 0v-5m0 5h7m-7 0v5m14-5 6 3.5M23 16v-5m0 5h-7m7 0v5m-7-5v-5m0 5v5m-7 0-6 3.5M9 21v5m0-5h7m-7 5-6 3.5M9 26h7m0-5v5m0-5h7m-7 5h7m0-5v5m0-5 6 3.5M23 26l6 3.5"/><path stroke="url(#g)" stroke-linecap="round" stroke-linejoin="round" stroke-width="1.15" d="M3 19.5 9 16m0 0v-5m0 5h7m-7 0v5m14-5 6 3.5M23 16v-5m0 5h-7m7 0v5m-7-5v-5m0 5v5m-7 0-6 3.5M9 21v5m0-5h7m-7 5-6 3.5M9 26h7m0-5v5m0-5h7m-7 5h7m0-5v5m0-5 6 3.5M23 26l6 3.5"/><g filter="url(#h)"><path fill="url(#i)" d="M5.081 12.699C4.47 13.139 4 13.838 4 15.019v14.554a.5.5 0 0 1-.5.502h-1a.5.5 0 0 1-.5-.502V15.02c0-1.83.781-3.138 1.919-3.954C5.009 10.283 6.357 10 7.5 10h17c1.143 0 2.49.283 3.581 1.065C29.218 11.881 30 13.188 30 15.02v14.554a.5.5 0 0 1-.5.502h-1a.5.5 0 0 1-.5-.502V15.02c0-1.181-.468-1.88-1.081-2.32-.66-.473-1.562-.691-2.419-.691h-17c-.857 0-1.76.219-2.419.69"/></g><g filter="url(#j)"><path fill="url(#k)" d="M3.5 28.822V15h-1v13.822zM3.5 15c0-1.338.547-2.187 1.29-2.718.768-.548 1.781-.782 2.71-.782v-1c-1.071 0-2.308.266-3.29.968-1.007.719-1.71 1.87-1.71 3.532zm4-3.5h17v-1h-17zm17 0c.929 0 1.942.234 2.71.782.743.531 1.29 1.38 1.29 2.718h1c0-1.662-.703-2.813-1.71-3.532-.982-.702-2.219-.968-3.29-.968zm4 3.5v14.306h1V15z"/></g><defs><linearGradient id="b" x1="4" x2="28" y1="20.5" y2="20.5" gradientUnits="userSpaceOnUse"><stop stop-color="#D1C6D2"/><stop offset=".5" stop-color="#CDB1E1"/><stop offset="1" stop-color="#CEB3E3"/></linearGradient><linearGradient id="c" x1="16" x2="16" y1="11" y2="29.5" gradientUnits="userSpaceOnUse"><stop offset=".781" stop-color="#C598EB" stop-opacity="0"/><stop offset="1" stop-color="#C598EB" stop-opacity=".4"/></linearGradient><linearGradient id="e" x1="4" x2="28" y1="20.5" y2="20.5" gradientUnits="userSpaceOnUse"><stop stop-color="#F8EBFF"/><stop offset=".078" stop-color="#F6E8FF"/><stop offset="1" stop-color="#E4CAFA"/></linearGradient><linearGradient id="f" x1="4" x2="28" y1="20.5" y2="20.5" gradientUnits="userSpaceOnUse"><stop offset=".583" stop-color="#826484" stop-opacity="0"/><stop offset="1" stop-color="#826484" stop-opacity=".5"/></linearGradient><linearGradient id="g" x1="16" x2="16" y1="11" y2="29.5" gradientUnits="userSpaceOnUse"><stop stop-color="#87477B" stop-opacity=".8"/><stop offset=".193" stop-color="#87477B" stop-opacity="0"/></linearGradient><linearGradient id="i" x1="28.619" x2="1.529" y1="22.514" y2="22.514" gradientUnits="userSpaceOnUse"><stop stop-color="#F32A8D"/><stop offset="1" stop-color="#F22D5C"/></linearGradient><linearGradient id="k" x1="29" x2="1.5" y1="10.5" y2="30" gradientUnits="userSpaceOnUse"><stop stop-color="#FF58A3"/><stop offset=".51" stop-color="#FF5A83"/><stop offset="1" stop-color="#FF4B75"/></linearGradient><filter id="a" width="27.15" height="19.8" x="2.425" y="10.275" color-interpolation-filters="sRGB" filterUnits="userSpaceOnUse"><feFlood flood-opacity="0" result="BackgroundImageFix"/><feBlend in="SourceGraphic" in2="BackgroundImageFix" result="shape"/><feColorMatrix in="SourceAlpha" result="hardAlpha" values="0 0 0 0 0 0 0 0 0 0 0 0 0 0 0 0 0 0 127 0"/><feOffset dy="-.15"/><feGaussianBlur stdDeviation=".2"/><feComposite in2="hardAlpha" k2="-1" k3="1" operator="arithmetic"/><feColorMatrix values="0 0 0 0 0.717647 0 0 0 0 0.541176 0 0 0 0 0.85098 0 0 0 1 0"/><feBlend in2="shape" result="effect1_innerShadow_18_2723"/></filter><filter id="d" width="27.4" height="19.9" x="2.3" y="10.3" color-interpolation-filters="sRGB" filterUnits="userSpaceOnUse"><feFlood flood-opacity="0" result="BackgroundImageFix"/><feBlend in="SourceGraphic" in2="BackgroundImageFix" result="shape"/><feGaussianBlur result="effect1_foregroundBlur_18_2723" stdDeviation=".25"/></filter><filter id="h" width="28.6" height="20.075" x="2" y="10" color-interpolation-filters="sRGB" filterUnits="userSpaceOnUse"><feFlood flood-opacity="0" result="BackgroundImageFix"/><feBlend in="SourceGraphic" in2="BackgroundImageFix" result="shape"/><feColorMatrix in="SourceAlpha" result="hardAlpha" values="0 0 0 0 0 0 0 0 0 0 0 0 0 0 0 0 0 0 127 0"/><feOffset dx=".6"/><feGaussianBlur stdDeviation=".5"/><feComposite in2="hardAlpha" k2="-1" k3="1" operator="arithmetic"/><feColorMatrix values="0 0 0 0 0.709804 0 0 0 0 0.207843 0 0 0 0 0.290196 0 0 0 1 0"/><feBlend in2="shape" result="effect1_innerShadow_18_2723"/></filter><filter id="j" width="28.5" height="20.306" x="1.75" y="9.75" color-interpolation-filters="sRGB" filterUnits="userSpaceOnUse"><feFlood flood-opacity="0" result="BackgroundImageFix"/><feBlend in="SourceGraphic" in2="BackgroundImageFix" result="shape"/><feGaussianBlur result="effect1_foregroundBlur_18_2723" stdDeviation=".375"/></filter></defs></svg>
